X:181
M:6/4
L:1/8
K:G
c2|"tr"B3AB2 c2B2E2|G2A2G2 G4c2|B3AB2 c2G2E2|D2E2D2 D4c2|B3AB2 c2G2E2|G3AG2 G4c2|
(Bc)d2B2 G2B2G2|(Bc)d2B2 "tr"c4e2|d2c2B2 "tr"c4B2|A2F2D2 D4:|:g2|f3ef2 g2d2B2|g2d2B2 G4g2|
f3ef2 g2d2B2|A2F2D2 D4g2|f3ef2 g2e2B2|d2e2f2 g2d2B2|c2a2c2 B2g2B2|A2F2D2 D4:|

